Papirus/32x32/apps/org.gabmus.gnome-feeds.svg

<svg xmlns="http://www.w3.org/2000/svg" width="32" height="32" version="1">
 <path style="opacity:0.2" d="m 1,23.544922 v 2.427734 1.007813 c 0,1.090977 0.9057313,1.969275 2.0449219,2.011719 V 29 h 0.083984 10.7421878 0.08398 v -0.0078 C 15.094264,28.949753 16,28.071446 16,26.980469 c 0,1.090977 0.905731,1.969275 2.044922,2.011719 V 29 h 0.08398 10.742188 0.08398 v -0.0078 C 30.094279,28.949753 31,28.071446 31,26.980469 V 25.972656 23.544922 H 28.955078 18.044922 16 13.955078 3.0449219 Z"/>
 <flowRoot style="font-size:40px;line-height:1.25;letter-spacing:0px;word-spacing:0px" transform="translate(0,-16)" xml:space="preserve">
  <flowRegion>
   <rect width="165" height="615" x="1305" y="-877"/>
  </flowRegion>
  <flowPara/>
 </flowRoot>
 <flowRoot style="font-size:40px;line-height:1.25;letter-spacing:0px;word-spacing:0px" transform="translate(0,-16)" xml:space="preserve">
  <flowRegion>
   <rect width="3865" height="2420" x="700" y="-1422"/>
  </flowRegion>
  <flowPara/>
 </flowRoot>
 <flowRoot style="font-size:40px;line-height:1.25;letter-spacing:0px;word-spacing:0px" transform="translate(0,-16)" xml:space="preserve">
  <flowRegion>
   <rect width="1700" height="1645" x="1030" y="-1062"/>
  </flowRegion>
  <flowPara/>
 </flowRoot>
 <flowRoot style="font-size:40px;line-height:1.25;letter-spacing:0px;word-spacing:0px" transform="translate(0,-16)" xml:space="preserve">
  <flowRegion>
   <rect width="1575" height="1475" x="660" y="-1162"/>
  </flowRegion>
  <flowPara/>
 </flowRoot>
 <path style="fill:#ff8915" d="m 16,22.545455 v 2.426314 1.00941 c 0,1.090977 0.906264,1.968387 2.045455,2.010831 V 28 h 0.08389 10.7413 0.08389 V 27.992 C 30.093736,27.949566 31,27.072155 31,25.981178 v -1.009409 -2.426314 h -2.045455 -10.90909 z"/>
 <path style="fill:#ff8915" d="m 1,22.545455 v 2.426314 1.00941 c 0,1.090977 0.906264,1.968387 2.0454546,2.010831 V 28 h 0.083896 10.7412994 0.0839 V 27.992 C 15.093736,27.949566 16,27.072155 16,25.981178 V 24.971769 22.545455 H 13.954545 3.0454546 Z"/>
 <path style="opacity:0.2" d="m 3.1287184,4.9999991 c -1.1792593,0 -2.128627,0.9077447 -2.128627,2.0353026 V 18.85879 23.947047 24.964698 C 1.0000914,26.092255 1.9494591,27 3.1287184,27 H 28.871282 c 1.179259,0 2.128627,-0.907745 2.128627,-2.035302 V 23.947047 18.85879 7.0353017 c 0,-1.1275579 -0.949368,-2.0353026 -2.128627,-2.0353026 z"/>
 <path style="fill:#e4e4e4" d="m 3.1287184,3.9999991 c -1.1792593,0 -2.128627,0.9077447 -2.128627,2.0353026 V 17.85879 22.947047 23.964698 C 1.0000914,25.092255 1.9494591,26 3.1287184,26 H 28.871282 c 1.179259,0 2.128627,-0.907745 2.128627,-2.035302 V 22.947047 17.85879 6.0353017 c 0,-1.1275579 -0.949368,-2.0353026 -2.128627,-2.0353026 z"/>
 <path style="opacity:0.05" d="m 3.1287184,3.9999991 c -1.1792593,0 -2.128627,0.9077447 -2.128627,2.0353026 V 17.85879 22.947047 23.964698 C 1.0000914,25.092255 1.9494591,26 3.1287184,26 H 16 V 3.9999991 Z"/>
 <path style="fill:#ff8915" d="M 22,13.499874 A 1.5000005,1.5001254 0 0 1 20.499999,15 1.5000005,1.5001254 0 0 1 19,13.499874 1.5000005,1.5001254 0 0 1 20.499999,11.99975 1.5000005,1.5001254 0 0 1 22,13.499874 Z" overflow="visible"/>
 <path style="fill:#ff8915" d="m 19,9.4000137 v 0.7012803 0.0082 a 0.69985442,0.69991281 0 0 0 0.69923,0.691027 0.69985442,0.69991281 0 0 0 0.01026,0 v 0.01025 c 1.918209,0 3.457491,1.522037 3.494094,3.43053 a 0.69985442,0.69991281 0 0 0 -0.004,0.05947 0.69985442,0.69991281 0 0 0 0.69923,0.699228 0.69985442,0.69991281 0 0 0 0.01026,0 h 0.688977 V 14.30897 h 0.01027 c 0,-2.63495 -2.104186,-4.7814534 -4.71621,-4.8802515 a 0.69985442,0.69991281 0 0 0 -0.182496,-0.028706 h -0.01026 z"/>
 <path style="fill:#ff8915" d="m 19,7 v 0.6660156 0.00977 a 0.66661115,0.66666676 0 0 0 0.666016,0.6582032 0.66661115,0.66666676 0 0 0 0.0098,0 v 0.017578 A 5.980835,5.981334 0 0 1 25.666016,14.341797 0.66661115,0.66666676 0 0 0 26.332031,15 a 0.66661115,0.66666676 0 0 0 0.0098,0 H 27 v -0.658203 a 0.66661115,0.66666676 0 0 0 0,-0.0039 c -1.2e-5,-0.01716 -0.0018,-0.03365 -0.002,-0.05078 a 0.66661115,0.66666676 0 0 0 -0.002,-0.01172 c -0.03635,-3.942078 -3.205163,-7.1458611 -7.132813,-7.2460941 0,0 -0.002,0 -0.002,0 A 0.66661115,0.66666676 0 0 0 19.675781,7 h -0.0098 z"/>
 <rect style="fill:#ff8915" width="7" height="1" x="4" y="7" ry="0"/>
 <rect style="fill:#9c9891" width="8" height="1" x="4" y="10" ry="0"/>
 <rect style="fill:#9c9891" width="7" height="1" x="4" y="13" ry="0"/>
 <rect style="fill:#9c9891" width="8" height="1" x="4" y="16" ry="0"/>
 <rect style="fill:#9c9891" width="5" height="1" x="4" y="19" ry="0"/>
 <rect style="fill:#9c9891" width="8" height="1" x="4" y="22" ry="0"/>
 <rect style="fill:#9c9891" width="8" height="1" x="19" y="22" ry="0"/>
 <rect style="fill:#9c9891" width="8" height="1" x="19" y="19" ry="0"/>
 <rect style="fill:#9c9891" width="5" height="1" x="19" y="16" ry="0"/>
 <path style="opacity:0.2;fill:#ffffff" d="M 3.1289062 4 C 1.9496469 4 1 4.9075983 1 6.0351562 L 1 7.0351562 C 1 5.9075983 1.9496469 5 3.1289062 5 L 28.871094 5 C 30.050353 5 31 5.9075983 31 7.0351562 L 31 6.0351562 C 31 4.9075983 30.050353 4 28.871094 4 L 3.1289062 4 z"/>
</svg>

<svg xmlns="http://www.w3.org/2000/svg" width="32" height="32" version="1">
 <path style="opacity:0.2" d="M 1,23.5 V 26.98 C 1,28.071 1.9057,28.958 3.0449,29 H 13.955 C 15.094,28.958 16,28.071 16,26.98 16,28.071 16.906,28.958 18.045,29 H 28.955 C 30.094,28.958 31,28.071 31,26.98 V 23.5 Z"/>
 <path style="fill:#ff8915" d="M 16,22.5 V 25.981 C 16,27.072 16.906,27.958 18.045,28 H 28.955 C 30.094,27.958 31,27.072 31,25.981 V 22.5 Z"/>
 <path style="fill:#ff8915" d="M 1,22.5 V 25.981 C 1,27.072 1.9063,27.958 3.0455,28 H 13.955 C 15.094,27.958 16,27.072 16,25.981 V 22.5 Z"/>
 <path style="opacity:0.2" d="M 3.1287,5 C 1.9495,5 1.0001,5.9077 1.0001,7.0353 V 24.965 C 1.0001,26.092 1.9495,27 3.1287,27 H 28.871 C 30.051,27 31,26.092 31,24.965 V 7.0353 C 31,5.9077 30.051,5 28.871,5 Z"/>
 <path style="fill:#e4e4e4" d="M 3.1287,4 C 1.9495,4 1.0001,4.9077 1.0001,6.0353 V 23.965 C 1.0001,25.092 1.9495,26 3.1287,26 H 28.871 C 30.051,26 31,25.092 31,23.965 V 6.0353 C 31,4.9077 30.051,4 28.871,4 Z"/>
 <path style="opacity:0.05" d="M 3.1287,4 C 1.9495,4 1.0001,4.9077 1.0001,6.0353 V 23.965 C 1.0001,25.092 1.9495,26 3.1287,26 H 16 V 4 Z"/>
 <path style="fill:#ff8915" d="M 22,13.5 A 1.5,1.5001 0 0 1 20.5,15 1.5,1.5001 0 0 1 19,13.5 1.5,1.5001 0 0 1 20.5,12 1.5,1.5001 0 0 1 22,13.5 Z"/>
 <path style="fill:#ff8915" d="M 19,9.4 V 10.101 10.109 A 0.69985,0.69991 0 0 0 19.699,10.801 0.69985,0.69991 0 0 0 19.709,10.801 V 10.811 C 21.628,10.811 23.167,12.333 23.204,14.241 A 0.69985,0.69991 0 0 0 23.2,14.301 0.69985,0.69991 0 0 0 23.899,15 0.69985,0.69991 0 0 0 23.909,15 H 24.598 V 14.309 H 24.608 C 24.608,11.674 22.504,9.5275 19.892,9.4287 A 0.69985,0.69991 0 0 0 19.71,9.4 H 19.699 Z"/>
 <path style="fill:#ff8915" d="M 19,7 V 7.666 7.6758 A 0.66661,0.66667 0 0 0 19.666,8.334 0.66661,0.66667 0 0 0 19.676,8.334 V 8.3516 A 5.9808,5.9813 0 0 1 25.666,14.342 0.66661,0.66667 0 0 0 26.332,15 0.66661,0.66667 0 0 0 26.342,15 H 27 V 14.342 A 0.66661,0.66667 0 0 0 27,14.338 C 27,14.321 26.998,14.304 26.998,14.287 A 0.66661,0.66667 0 0 0 26.996,14.275 C 26.96,10.333 23.791,7.1295 19.863,7.0293 19.863,7.0293 19.861,7.0293 19.861,7.0293 A 0.66661,0.66667 0 0 0 19.676,7 H 19.666 Z"/>
 <rect style="fill:#ff8915" width="7" height="1" x="4" y="7" ry="0"/>
 <rect style="fill:#9c9891" width="8" height="1" x="4" y="10" ry="0"/>
 <rect style="fill:#9c9891" width="7" height="1" x="4" y="13" ry="0"/>
 <rect style="fill:#9c9891" width="8" height="1" x="4" y="16" ry="0"/>
 <rect style="fill:#9c9891" width="5" height="1" x="4" y="19" ry="0"/>
 <rect style="fill:#9c9891" width="8" height="1" x="4" y="22" ry="0"/>
 <rect style="fill:#9c9891" width="8" height="1" x="19" y="22" ry="0"/>
 <rect style="fill:#9c9891" width="8" height="1" x="19" y="19" ry="0"/>
 <rect style="fill:#9c9891" width="5" height="1" x="19" y="16" ry="0"/>
 <path style="opacity:0.2;fill:#ffffff" d="M 3.1289,4 C 1.9496,4 1,4.9076 1,6.0352 V 7.0352 C 1,5.9076 1.9496,5 3.1289,5 H 28.871 C 30.05,5 31,5.9076 31,7.0352 V 6.0352 C 31,4.9076 30.05,4 28.871,4 Z"/>
</svg>
